material/.icons/material/music-note-bluetooth-off.svg

<svg xmlns="http://www.w3.org/2000/svg" viewBox="0 0 24 24"><path d="M22 9.85L19.14 7h-.5v3.79L16.35 8.5l-.71.71L18.43 12l-2.79 2.79.71.71 2.29-2.29V17h.5L22 14.15 19.85 12 22 9.85m-2.36-.94l.94.94-.94.94V8.91m.94 5.24l-.94.94v-1.88l.94.94M1.96 3L.687 4.27l9.003 9v.28c-.59-.34-1.27-.55-2-.55-2.19 0-4 1.79-4 4s1.81 4 4 4 4-1.79 4-4v-1.73L17.42 21l1.27-1.27L1.96 3m9.73 4h4V3h-6v5.18l2 2V7z"/></svg>

<?xml version="1.0" encoding="UTF-8"?><!DOCTYPE svg PUBLIC "-//W3C//DTD SVG 1.1//EN" "http://www.w3.org/Graphics/SVG/1.1/DTD/svg11.dtd"><svg xmlns="http://www.w3.org/2000/svg" xmlns:xlink="http://www.w3.org/1999/xlink" version="1.1" id="mdi-music-note-bluetooth-off" width="24" height="24" viewBox="0 0 24 24"><path d="M22 9.85L19.14 7H18.64V10.79L16.35 8.5L15.64 9.21L18.43 12L15.64 14.79L16.35 15.5L18.64 13.21V17H19.14L22 14.15L19.85 12L22 9.85M19.64 8.91L20.58 9.85L19.64 10.79V8.91M20.58 14.15L19.64 15.09V13.21L20.58 14.15M1.96 3L.687 4.27L9.69 13.27V13.55C9.1 13.21 8.42 13 7.69 13C5.5 13 3.69 14.79 3.69 17S5.5 21 7.69 21 11.69 19.21 11.69 17V15.27L17.42 21L18.69 19.73L1.96 3M11.69 7H15.69V3H9.69V8.18L11.69 10.18V7Z" /></svg>
